X:1
T:King’s Lynn, 76.76 D
T:King’s Lynn, 76.76 D
T:English melody, arr. by Ralph V. Williams, 1906
T:Public Domain Courtesy of the Cyber Hymnal™
C:English melody, arr. by Ralph V. Williams, 1906
Z:Public Domain
Z:Courtesy of the Cyber Hymnal™
%%score ( 1 2 ) ( 3 4 )
L:1/8
Q:1/4=110
M:none
K:F
V:1 treble 
V:2 treble 
V:3 bass 
V:4 bass 
V:1
 [DA]2 | [DG]2 [DFA]2 D2 E2 | ([CF]2 [DG]2) [CG]2 (BA) | [DG]3 [CF] [B,D]2 [A,C]2 | [A,D]6 (DE) | %5
 [DF]2 [EG]2 [FA]2 (cA) | d4 [Fd]2 [Cc]2 | [CA]2 [CFc]2 [DA]2 [EG]2 | [FA]6 (DE) | %9
 [DF]2 [EG]2 [FA]2 (cA) | [Fd]4 [Fc]2 [EA]2 | [Fc]2 [FAc]2 [FA]2 [EG]2 | [EA]6 [FA]2 | %13
 G2 A2 [A,D]2 [CE]2 | ([CF]2 [DG]2) [CGc]2 (BA) | [DG]3 [CF] [B,D]2 [A,C]2 | [A,D]6 |] %17
V:2
 x2 | x4 D4 | x6 [CF]2 | x8 | x6 D2 | x6 E2 | (F2 G2) x4 | x8 | x6 D2 | x6 F2 | x8 | x8 | x8 | %13
 E4 x4 | x6 [CF]2 | x8 | x6 |] %17
V:3
 [D,F,]2 | [G,,B,]2 [D,A,]2 B,2 G,2 | ([A,,C]2 B,2) [E,,C]2 [E,,F,]2 | [G,,B,]3 [A,,A,] F,4 | %4
 [D,,D,]6 (F,G,) | [D,A,]2 [C,C]2 C4 | (A,2 B,2) [D,A,]2 [E,G,]2 | F,2 F,4 [C,C]2 | %8
 ([F,,C]6 F,G,) | [D,A,]2 [C,C]2 [F,C]2 [A,,C]2 | B,4 [F,A,]2 [A,C]2 | [F,A,]2 C2 [A,,C]2 [C,C]2 | %12
 C6 [D,=B,]2 | [E,=B,]2 [A,,C]2 [D,F,]2 [C,G,]2 | ([A,,C]2 B,2) [E,,C]2 [F,,F,]2 | %15
 [G,,B,]3 [A,,A,] F,4 | [D,,D,F,]6 |] %17
V:4
 x2 | x4 B,,4 | x2 (G,,F,,) x4 | x4 B,,2 F,,2 | x6 D,2 | x4 (F,G,) A,2 | D,4 x4 | %7
 F,2 (A,,2 B,,2) x2 | x6 D,2 | x8 | (B,,2 D,2) x4 | x2 (F,,G,,) x4 | (A,,3 =B,, C,2) x2 | x8 | %14
 x2 (G,,F,,) x4 | x4 B,,2 F,,2 | x6 |] %17

